X:1
T:Dale Abbey, 77.77.77
T:Dale Abbey, 77.77.77
T:Arthur Henry Brown (1830-1926)
T:Public Domain Courtesy of the Cyber Hymnal™
C:Arthur Henry Brown (1830-1926)
Z:Public Domain
Z:Courtesy of the Cyber Hymnal™
%%score ( 1 2 ) ( 3 4 )
L:1/8
Q:1/4=110
M:4/4
K:D
V:1 treble 
V:2 treble 
V:3 bass 
V:4 bass 
V:1
 [DF]2 [DA]2 [CG]2 [DF]2 | [CF]3 [CE] [CE]4 | [A,D]2 [A,C]2 [A,D]2 [DF]2 | [DA]3 [DG] [CE]4 | %4
 [DF]2 [DA]2 [DG]2 [DF]2 | [DF]3 [DE] [CE]4 | D2 [DF]2 [FB]2 [FA]2 | A3 z ^G [EA]4 | %8
 [FA]2 [GB]2 B3 z c | [Fd]2 [Fd]2 [EG]4 | [CE]2 [CA]2 D3 [DE] | [DF]2 [CE]2 D4 x |] %12
V:2
 x8 | x8 | x8 | x8 | x8 | x8 | D2 x6 | F2 E2 x5 | x4 G2 G2 x | x8 | x4 D3 x | x4 D4 x |] %12
V:3
 [D,A,]2 [F,A,]2 [E,A,]2 [D,A,]2 | [G,A,]3 [G,A,] [G,A,]4 | [F,A,]2 [E,G,]2 [D,F,]2 [B,,B,]2 | %3
 [F,,A,]3 [G,,B,] [A,,A,]4 | [D,A,]2 [D,=C]2 [D,B,]2 [D,A,]2 | [G,B,]3 [G,B,] [G,A,]4 | %6
 [F,A,]2 [D,A,]2 [B,,D]2 [C,C]2 | [D,B,]2 [E,B,]2 [A,,C]4 x | [D,D]2 [G,D]2 [E,E]2 [A,,E]2 x | %9
 [B,,D]2 [B,,B,]2 [E,B,]4 | A,2 [G,A,]2 [F,A,]3 [G,B,] | A,3 z G, [D,F,]4 |] %12
V:4
 x8 | x8 | x8 | x8 | x8 | x8 | x8 | x9 | x9 | x8 | A,2 x6 | A,2 A,,2 x5 |] %12

